X:2
T:Royal Recovery, The
M:C
L:1/8
R:Strathspey
S:Surenne – Dance Music of Scotland, pp. 32-33  (1852)
Z:AK/Fiddler’s Companion
K:Bb
B,>CD>E F>GF>D | B,>DF>D (F<B) Bd | B,>CD>E F>G (G/F/E/D/) | C(d/e/) (e/d/c/B/) (A<c)cd |
B,>CD>E F>GF>D | B,>DF>D (F<B) Bd/e/ | {d/e/}f>dB>F G>eg>f | e>d{d}c>B (A<c)c>d ||
B<B{B/c/}d>B (f<B)d>B | F>Bd>B (g/f/e/d/) c>d | B<Bd>B (f<B)d>B | G>A/2B/4 (G/F/E/D/) (C<c) c>d |
B<B{B/c/}d>B (f<B)d>B | F>Bd>B (g/f/e/d/) c>d | B>dB>F G>BG>E|{G}F>ED>C (B,<B) Bd ||

